images/partners/partner1.svg

<svg width="156" height="40" viewBox="0 0 156 40" fill="none" xmlns="http://www.w3.org/2000/svg">
<path d="M46.3848 12.5875H50.159V27.75H46.3848V12.5875ZM51.6561 22.025C51.6561 18.275 53.9709 16.0375 57.5438 16.0375C61.1167 16.0375 63.4315 18.275 63.4315 22.025C63.4315 25.775 61.167 28.025 57.5438 28.025C53.9206 28.025 51.6561 25.8375 51.6561 22.025ZM59.6448 22.025C59.6448 19.9625 58.827 18.75 57.5438 18.75C56.2606 18.75 55.4554 20 55.4554 22.025C55.4554 24.05 56.248 25.275 57.5438 25.275C58.8396 25.275 59.6448 24.125 59.6448 22.0375V22.025ZM64.8532 28.4875H68.4764C68.6489 28.8681 68.9403 29.1833 69.3076 29.386C69.6748 29.5886 70.0981 29.6681 70.5144 29.6125C71.9486 29.6125 72.7035 28.8375 72.7035 27.7125V25.6125H72.628C72.3273 26.2561 71.8393 26.7954 71.2271 27.1609C70.615 27.5263 69.9065 27.701 69.1935 27.6625C66.4383 27.6625 64.6141 25.575 64.6141 21.9875C64.6141 18.4 66.3503 16.1375 69.2438 16.1375C69.9793 16.1089 70.7059 16.3042 71.3265 16.6974C71.9471 17.0906 72.432 17.6629 72.7161 18.3375V16.25H76.4902V27.625C76.4902 30.3625 74.0622 32.0625 70.4767 32.0625C67.1428 32.0625 65.067 30.575 64.8532 28.5V28.4875ZM72.7161 22.0125C72.7161 20.1875 71.8732 19.0375 70.5396 19.0375C69.2061 19.0375 68.3883 20.175 68.3883 22.0125C68.3883 23.85 69.1935 24.8875 70.5396 24.8875C71.8857 24.8875 72.7161 23.875 72.7161 22.025V22.0125ZM77.9119 22.0125C77.9119 18.2625 80.2267 16.025 83.7996 16.025C87.3725 16.025 89.6999 18.2625 89.6999 22.0125C89.6999 25.7625 87.4354 28.0125 83.7996 28.0125C80.1638 28.0125 77.9119 25.8375 77.9119 22.025V22.0125ZM85.9006 22.0125C85.9006 19.95 85.0828 18.7375 83.7996 18.7375C82.5164 18.7375 81.7741 20 81.7741 22.0375C81.7741 24.075 82.5667 25.2875 83.8499 25.2875C85.1332 25.2875 85.9006 24.125 85.9006 22.0375V22.0125ZM91.1341 13.525C91.1242 13.1464 91.2277 12.7734 91.4314 12.4533C91.6352 12.1331 91.93 11.8803 92.2785 11.7269C92.6269 11.5734 93.0134 11.5263 93.3889 11.5913C93.7645 11.6564 94.1121 11.8308 94.3877 12.0924C94.6635 12.354 94.8547 12.691 94.9374 13.0607C95.02 13.4305 94.9903 13.8162 94.852 14.1692C94.7137 14.5221 94.473 14.8264 94.1605 15.0433C93.8481 15.2601 93.4778 15.38 93.0967 15.3875C92.8441 15.4048 92.5906 15.3699 92.3522 15.2851C92.1137 15.2004 91.8955 15.0676 91.7112 14.895C91.5269 14.7225 91.3804 14.5139 91.2812 14.2824C91.1818 14.051 91.1317 13.8016 91.1341 13.55V13.525ZM91.1341 16.275H94.9083V27.75H91.1341V16.275ZM108.609 22.0125C108.609 25.7625 106.935 27.9 104.067 27.9C103.332 27.9469 102.599 27.7683 101.969 27.3883C101.339 27.0081 100.842 26.445 100.544 25.775H100.469V31.425H96.6948V16.25H100.469V18.3H100.544C100.828 17.6189 101.316 17.0411 101.942 16.6453C102.567 16.2494 103.301 16.0546 104.042 16.0875C106.935 16.1375 108.659 18.2875 108.659 22.0375L108.609 22.0125ZM104.834 22.0125C104.834 20.1875 103.992 19.025 102.671 19.025C101.35 19.025 100.507 20.2 100.494 22.0125C100.482 23.825 101.35 24.9875 102.671 24.9875C103.992 24.9875 104.834 23.85 104.834 22.0375V22.0125ZM115.088 16.0125C118.22 16.0125 120.12 17.4875 120.208 19.85H116.773C116.773 19.0375 116.094 18.525 115.05 18.525C114.006 18.525 113.54 18.925 113.54 19.5125C113.54 20.1 113.955 20.2875 114.798 20.4625L117.214 20.95C119.516 21.4375 120.497 22.3625 120.497 24.1C120.497 26.475 118.321 28 115.113 28C111.905 28 109.804 26.475 109.64 24.1375H113.276C113.389 24.9875 114.069 25.4875 115.176 25.4875C116.283 25.4875 116.786 25.125 116.786 24.525C116.786 23.925 116.434 23.8 115.528 23.6125L113.352 23.15C111.1 22.6875 109.917 21.5 109.917 19.75C109.942 17.5 111.968 16.0375 115.088 16.0375V16.0125ZM133.091 27.725H129.455V25.5875H129.379C129.179 26.3051 128.739 26.9333 128.13 27.3676C127.521 27.8019 126.781 28.0162 126.033 27.975C125.459 28.0074 124.886 27.9171 124.35 27.7102C123.815 27.5034 123.331 27.1849 122.93 26.776C122.529 26.3672 122.222 25.8776 122.028 25.3405C121.834 24.8034 121.758 24.2311 121.806 23.6625V16.25H125.58V22.8C125.58 24.1625 126.284 24.8875 127.454 24.8875C127.729 24.888 128 24.8304 128.251 24.7182C128.5 24.6061 128.724 24.4421 128.905 24.2374C129.085 24.0325 129.221 23.7916 129.3 23.5309C129.379 23.27 129.403 22.9953 129.367 22.725V16.25H133.141L133.091 27.725ZM134.915 16.25H138.563V18.4625H138.639C138.839 17.7544 139.27 17.1321 139.864 16.6934C140.458 16.2546 141.182 16.0239 141.922 16.0375C142.676 15.9776 143.423 16.2015 144.018 16.6648C144.612 17.128 145.009 17.7965 145.13 18.5375H145.206C145.433 17.7886 145.906 17.1366 146.549 16.684C147.191 16.2314 147.967 16.0039 148.753 16.0375C149.267 16.0204 149.778 16.1108 150.253 16.3028C150.73 16.4946 151.159 16.784 151.515 17.1518C151.871 17.5196 152.145 17.9578 152.32 18.4376C152.494 18.9175 152.565 19.4286 152.528 19.9375V27.75H148.753V20.9375C148.753 19.6875 148.187 19.1125 147.131 19.1125C146.895 19.1105 146.661 19.1588 146.446 19.254C146.231 19.3493 146.039 19.4892 145.883 19.6646C145.727 19.84 145.61 20.0465 145.54 20.2704C145.471 20.4944 145.452 20.7304 145.483 20.9625V27.75H141.897V20.8875C141.897 19.7375 141.331 19.1125 140.299 19.1125C140.061 19.1126 139.825 19.1629 139.609 19.26C139.391 19.3573 139.196 19.4991 139.039 19.6763C138.88 19.8534 138.762 20.0619 138.69 20.288C138.62 20.514 138.597 20.7524 138.626 20.9875V27.75H134.852L134.915 16.25Z" fill="#010032"/>
<path d="M35.8303 13.275C35.19 11.8204 34.3427 10.4649 33.3141 9.24999C31.7938 7.40041 29.8963 5.89173 27.7468 4.82324C25.5973 3.75476 23.2443 3.1507 20.8429 3.05081C18.4415 2.95093 16.0461 3.35748 13.8141 4.24373C11.5823 5.12996 9.5646 6.4758 7.89392 8.19265C6.22324 9.90949 4.93744 11.9584 4.12114 14.2046C3.30484 16.4507 2.97655 18.8433 3.15789 21.2245C3.33924 23.6059 4.02608 25.922 5.17323 28.0205C6.32039 30.1191 7.90184 31.9525 9.81349 33.4C11.0401 34.3474 12.3955 35.1175 13.8393 35.6875C15.8635 36.5117 18.03 36.9362 20.2177 36.9375C24.7334 36.9276 29.0609 35.1391 32.2517 31.9641C35.4424 28.7891 37.236 24.4867 37.2393 20C37.2426 17.6856 36.7629 15.3957 35.8303 13.275ZM20.2051 6.48748C22.1697 6.48728 24.1105 6.9139 25.8915 7.73748C25.4573 7.92394 25.0006 8.05418 24.5328 8.12499C22.9937 8.34635 21.568 9.05633 20.4683 10.149C19.3686 11.2416 18.654 12.6582 18.4312 14.1875C18.3335 15.0451 17.9408 15.843 17.3197 16.4465C16.6986 17.05 15.887 17.422 15.0219 17.5C13.4827 17.7214 12.0569 18.4314 10.9573 19.524C9.85762 20.6166 9.14306 22.0333 8.92027 23.5625C8.84483 24.378 8.49465 25.1444 7.9264 25.7375C6.94592 23.6791 6.50547 21.4076 6.64603 19.1346C6.78658 16.8616 7.50356 14.6609 8.73026 12.7371C9.95695 10.8135 11.6535 9.22938 13.662 8.13229C15.6705 7.0352 17.9257 6.46079 20.2177 6.46248L20.2051 6.48748ZM9.80091 28.75C9.95188 28.6125 10.1028 28.4875 10.2538 28.3375C11.3731 27.2594 12.0915 25.8361 12.2919 24.3C12.3731 23.4365 12.7611 22.63 13.3864 22.025C13.9881 21.4028 14.7979 21.0204 15.6635 20.95C17.2026 20.7286 18.6284 20.0186 19.728 18.926C20.8277 17.8334 21.5423 16.4167 21.7651 14.8875C21.8196 13.9844 22.2096 13.1335 22.8596 12.5C23.4762 11.8898 24.2937 11.5214 25.1619 11.4625C26.5758 11.2692 27.8945 10.6446 28.9361 9.67499C30.122 10.6526 31.1267 11.8286 31.9051 13.15C31.8573 13.2141 31.8024 13.2729 31.7415 13.325C31.1411 13.9527 30.3323 14.3435 29.4644 14.425C27.9237 14.6425 26.4958 15.3512 25.3954 16.4445C24.2951 17.5379 23.5817 18.9566 23.3628 20.4875C23.2741 21.348 22.8888 22.1516 22.2721 22.7621C21.6553 23.3727 20.8451 23.7526 19.9786 23.8375C18.435 24.0571 17.0039 24.7658 15.8979 25.8579C14.7919 26.9501 14.0699 28.3676 13.8393 29.9C13.7716 30.5109 13.5604 31.0975 13.2228 31.6125C11.9321 30.851 10.776 29.884 9.80091 28.75ZM20.2051 33.575C18.9285 33.5764 17.658 33.3996 16.4309 33.05C16.8507 32.2725 17.1236 31.4251 17.2361 30.55C17.3243 29.6914 17.7078 28.8892 18.322 28.279C18.9362 27.6687 19.7435 27.2876 20.6077 27.2C22.1491 26.9811 23.5777 26.2722 24.6799 25.1794C25.782 24.0866 26.4984 22.6685 26.7219 21.1375C26.8101 20.2789 27.1936 19.4767 27.8078 18.8665C28.422 18.2562 29.2293 17.8751 30.0935 17.7875C31.2534 17.6376 32.359 17.2085 33.3141 16.5375C33.8445 18.5349 33.9073 20.6264 33.4978 22.6516C33.0883 24.6769 32.2172 26.5821 30.9516 28.221C29.686 29.8597 28.0594 31.1889 26.1965 32.1061C24.3337 33.0234 22.2842 33.5045 20.2051 33.5125V33.575Z" fill="#010032"/>
</svg>

<svg width="156" height="40" fill="none" xmlns="http://www.w3.org/2000/svg"><path d="M46.385 12.588h3.774V27.75h-3.774V12.588zm5.271 9.437c0-3.75 2.315-5.987 5.888-5.987s5.888 2.237 5.888 5.987-2.265 6-5.888 6c-3.623 0-5.888-2.188-5.888-6zm7.989 0c0-2.063-.818-3.275-2.101-3.275s-2.089 1.25-2.089 3.275.793 3.25 2.089 3.25c1.296 0 2.1-1.15 2.1-3.237v-.013zm5.208 6.463h3.623a1.96 1.96 0 002.038 1.125c1.435 0 2.19-.776 2.19-1.9v-2.1h-.076a3.559 3.559 0 01-1.4 1.548 3.59 3.59 0 01-2.034.502c-2.756 0-4.58-2.088-4.58-5.675 0-3.588 1.736-5.85 4.63-5.85a3.628 3.628 0 012.082.56 3.588 3.588 0 011.39 1.64V16.25h3.774v11.375c0 2.738-2.428 4.438-6.013 4.438-3.334 0-5.41-1.488-5.624-3.563v-.012zm7.863-6.476c0-1.825-.843-2.974-2.176-2.974-1.334 0-2.152 1.137-2.152 2.974 0 1.838.805 2.875 2.152 2.875 1.346 0 2.176-1.012 2.176-2.862v-.012zm5.196 0c0-3.75 2.315-5.987 5.888-5.987s5.9 2.238 5.9 5.988c0 3.75-2.265 6-5.9 6-3.636 0-5.888-2.176-5.888-5.988v-.012zm7.989 0c0-2.062-.818-3.274-2.101-3.274-1.284 0-2.026 1.262-2.026 3.3 0 2.037.793 3.25 2.076 3.25s2.05-1.163 2.05-3.25v-.026zm5.233-8.487c-.01-.379.094-.752.297-1.072a1.936 1.936 0 012.956-.36 1.909 1.909 0 01.465 2.076 1.915 1.915 0 01-.692.874 1.933 1.933 0 01-1.063.345 1.846 1.846 0 01-1.386-.493 1.823 1.823 0 01-.577-1.345v-.025zm0 2.75h3.774V27.75h-3.774V16.275zm17.475 5.738c0 3.75-1.674 5.887-4.542 5.887a3.618 3.618 0 01-2.098-.512 3.587 3.587 0 01-1.425-1.613h-.075v5.65h-3.774V16.25h3.774v2.05h.075a3.596 3.596 0 011.398-1.655 3.626 3.626 0 012.1-.558c2.893.05 4.617 2.2 4.617 5.95l-.05-.024zm-3.775 0c0-1.826-.842-2.988-2.163-2.988-1.321 0-2.164 1.175-2.177 2.988-.012 1.812.856 2.974 2.177 2.974 1.321 0 2.163-1.137 2.163-2.95v-.024zm10.254-6c3.132 0 5.032 1.474 5.12 3.837h-3.435c0-.813-.679-1.325-1.723-1.325s-1.51.4-1.51.988c0 .587.415.774 1.258.95l2.416.487c2.302.488 3.283 1.413 3.283 3.15 0 2.375-2.176 3.9-5.384 3.9s-5.309-1.525-5.473-3.863h3.636c.113.85.793 1.35 1.9 1.35 1.107 0 1.61-.362 1.61-.962s-.352-.725-1.258-.912l-2.176-.463c-2.252-.462-3.435-1.65-3.435-3.4.025-2.25 2.051-3.712 5.171-3.712v-.026zm18.003 11.712h-3.636v-2.138h-.076c-.2.718-.64 1.346-1.249 1.78a3.3 3.3 0 01-2.097.608 4.039 4.039 0 01-3.103-1.199 3.98 3.98 0 01-1.124-3.113V16.25h3.774v6.55c0 1.363.704 2.087 1.874 2.087a1.942 1.942 0 001.451-.65 1.914 1.914 0 00.462-1.512V16.25h3.774l-.05 11.475zm1.824-11.475h3.648v2.212h.076c.2-.708.631-1.33 1.225-1.769a3.36 3.36 0 012.058-.655 3.02 3.02 0 012.096.627 2.985 2.985 0 011.112 1.873h.076c.227-.75.7-1.401 1.343-1.854a3.563 3.563 0 012.204-.646 3.676 3.676 0 012.762 1.114 3.629 3.629 0 011.013 2.786v7.812h-3.775v-6.813c0-1.25-.566-1.825-1.622-1.825a1.659 1.659 0 00-1.248.553 1.621 1.621 0 00-.4 1.298v6.787h-3.586v-6.863c0-1.15-.566-1.774-1.598-1.774a1.687 1.687 0 00-1.609 1.175c-.07.226-.093.464-.064.7v6.762h-3.774l.063-11.5zM35.83 13.275a16.545 16.545 0 00-2.516-4.025 17.002 17.002 0 00-5.567-4.427 17.11 17.11 0 00-19.853 3.37 16.896 16.896 0 00-3.773 6.012A16.812 16.812 0 005.173 28.02a16.942 16.942 0 004.64 5.38 16.495 16.495 0 004.026 2.288 16.942 16.942 0 006.379 1.25 17.115 17.115 0 0012.034-4.974A16.895 16.895 0 0037.239 20a16.645 16.645 0 00-1.409-6.725zM20.205 6.487c1.965 0 3.905.427 5.687 1.25a5.538 5.538 0 01-1.36.388 7.225 7.225 0 00-4.064 2.024 7.145 7.145 0 00-2.037 4.039 3.74 3.74 0 01-1.111 2.258 3.785 3.785 0 01-2.298 1.054 7.226 7.226 0 00-4.065 2.024 7.146 7.146 0 00-2.037 4.038 3.627 3.627 0 01-.994 2.175 13.425 13.425 0 01.804-13 13.552 13.552 0 014.932-4.605 13.656 13.656 0 016.556-1.67l-.013.025zM9.801 28.75c.15-.137.302-.262.453-.413a6.834 6.834 0 002.038-4.037 3.64 3.64 0 011.094-2.275 3.57 3.57 0 012.278-1.075 7.226 7.226 0 004.064-2.024 7.146 7.146 0 002.037-4.038A3.64 3.64 0 0122.86 12.5a3.621 3.621 0 012.302-1.037 6.914 6.914 0 003.774-1.788 13.161 13.161 0 012.97 3.475 1.08 1.08 0 01-.165.175 3.62 3.62 0 01-2.277 1.1 7.2 7.2 0 00-4.069 2.02 7.121 7.121 0 00-2.032 4.043 3.74 3.74 0 01-1.09 2.274c-.618.61-1.428.99-2.294 1.075a7.264 7.264 0 00-4.081 2.02 7.184 7.184 0 00-2.059 4.043 3.909 3.909 0 01-.616 1.713A13.68 13.68 0 019.8 28.75zm10.404 4.825a13.72 13.72 0 01-3.774-.525c.42-.777.693-1.625.805-2.5a3.74 3.74 0 011.086-2.271 3.784 3.784 0 012.286-1.079 7.227 7.227 0 004.072-2.02 7.146 7.146 0 002.042-4.043 3.74 3.74 0 011.086-2.27 3.784 3.784 0 012.285-1.08 7.21 7.21 0 003.221-1.25 13.44 13.44 0 01.184 6.115 13.485 13.485 0 01-2.546 5.569 13.594 13.594 0 01-4.756 3.885 13.683 13.683 0 01-5.99 1.407v.062z" fill="#010032"/></svg>
